austria/municipalities/41018.svg

<?xml version="1.0" encoding="UTF-8"?>
<!DOCTYPE svg PUBLIC "-//W3C//DTD SVG 1.1//EN" "http://www.w3.org/Graphics/SVG/1.1/DTD/svg11.dtd">
<svg xmlns="http://www.w3.org/2000/svg" version="1.1" width="166px" height="207px" style="shape-rendering:geometricPrecision; text-rendering:geometricPrecision; image-rendering:optimizeQuality; fill-rule:evenodd; clip-rule:evenodd" xmlns:xlink="http://www.w3.org/1999/xlink">
<g><path style="opacity:1" fill="#000000" d="M -0.5,-0.5 C 54.8333,-0.5 110.167,-0.5 165.5,-0.5C 165.5,44.1667 165.5,88.8333 165.5,133.5C 157.475,172.524 134.142,196.858 95.5,206.5C 86.8333,206.5 78.1667,206.5 69.5,206.5C 30.0061,196.67 6.67281,171.67 -0.5,131.5C -0.5,87.5 -0.5,43.5 -0.5,-0.5 Z"/></g>
<g><path style="opacity:1" fill="#cb0000" d="M 3.5,3.5 C 38.5016,3.33335 73.5016,3.50002 108.5,4C 102.976,10.6901 97.6424,17.5235 92.5,24.5C 85.908,27.7673 79.5746,31.434 73.5,35.5C 70.1464,40.2074 67.3131,45.2074 65,50.5C 59.892,55.974 53.7254,59.8073 46.5,62C 36.4492,67.5788 29.2825,75.7454 25,86.5C 19.8526,94.3204 12.6859,98.9871 3.5,100.5C 3.5,68.1667 3.5,35.8333 3.5,3.5 Z"/></g>
<g><path style="opacity:1" fill="#fe9900" d="M 120.5,82.5 C 120.5,82.1667 120.5,81.8333 120.5,81.5C 123.028,80.8343 125.694,80.1676 128.5,79.5C 127.494,78.6043 127.494,77.9377 128.5,77.5C 130.432,78.5202 132.432,78.6869 134.5,78C 131.388,77.1495 131.054,75.9828 133.5,74.5C 134.768,75.4279 136.101,75.5946 137.5,75C 135.385,74.5756 134.552,73.4089 135,71.5C 137.253,71.9458 139.753,72.1125 142.5,72C 141.692,71.6924 141.025,71.1924 140.5,70.5C 142.977,68.7451 145.644,67.9117 148.5,68C 150.004,72.6011 151.338,72.4345 152.5,67.5C 154.366,68.5628 154.866,67.8961 154,65.5C 152.978,64.646 152.145,63.646 151.5,62.5C 153.108,61.7579 154.775,61.5913 156.5,62C 155.284,60.2602 153.618,59.2602 151.5,59C 152.357,58.3109 153.023,57.4776 153.5,56.5C 151.926,55.3691 150.259,55.2025 148.5,56C 144.697,57.6554 141.03,59.4888 137.5,61.5C 137.703,59.9557 138.37,58.6223 139.5,57.5C 137.361,54.3176 137.861,51.3176 141,48.5C 146.487,54.4888 147.654,53.8221 144.5,46.5C 146.343,46.2448 148.343,46.0781 150.5,46C 149.167,44.6667 147.833,43.3333 146.5,42C 147.5,41.1667 148.5,40.3333 149.5,39.5C 147.577,38.6922 145.577,38.1922 143.5,38C 144.5,37.1667 145.5,36.3333 146.5,35.5C 142.414,34.5303 139.081,35.8636 136.5,39.5C 133.912,43.6756 131.079,47.6756 128,51.5C 126.646,55.3628 126.146,59.3628 126.5,63.5C 125.833,63.5 125.167,63.5 124.5,63.5C 123.522,63.189 122.855,62.5223 122.5,61.5C 123.441,61.5105 124.108,61.0105 124.5,60C 123.978,59.0497 123.311,58.2164 122.5,57.5C 123.603,57.0024 124.603,56.6691 125.5,56.5C 124.833,55.5 124.167,54.5 123.5,53.5C 123.967,51.1818 123.967,49.0151 123.5,47C 121.999,45.7485 120.332,44.7485 118.5,44C 119.167,43.3333 119.833,42.6667 120.5,42C 118.668,41.2515 117.001,40.2515 115.5,39C 115.957,38.586 116.291,38.086 116.5,37.5C 114.833,36.8333 113.167,36.1667 111.5,35.5C 111.833,34.8333 112.167,34.1667 112.5,33.5C 110.922,32.7022 109.256,32.2022 107.5,32C 108.711,31.1072 108.711,30.2739 107.5,29.5C 101.402,31.0244 95.4018,32.8577 89.5,35C 85.2366,39.2127 80.5699,42.8794 75.5,46C 74.6634,47.0113 74.33,48.1779 74.5,49.5C 76.1992,49.3398 77.8659,49.5065 79.5,50C 78.8334,51.857 79.5001,53.357 81.5,54.5C 81.5,56.1667 81.5,57.8333 81.5,59.5C 85.5246,59.1839 89.5246,59.0172 93.5,59C 94.428,59.3879 95.0946,60.0546 95.5,61C 91.7637,64.8772 87.4303,65.5439 82.5,63C 80.1944,61.014 77.5277,59.8473 74.5,59.5C 70.611,60.8642 66.611,61.6975 62.5,62C 62.1667,62.3333 61.8333,62.6667 61.5,63C 62.5,63.3333 63.5,63.6667 64.5,64C 61.8333,64.3333 59.1667,64.6667 56.5,65C 55.1667,65.6667 55.1667,66.3333 56.5,67C 53.0684,67.1161 50.0684,68.2828 47.5,70.5C 48.376,71.2508 49.376,71.7508 50.5,72C 46.5142,72.4848 43.1808,74.1515 40.5,77C 41.1667,77.3333 41.8333,77.6667 42.5,78C 40.981,79.3513 39.6477,80.8513 38.5,82.5C 39.4709,83.9621 39.1376,85.2954 37.5,86.5C 38.0253,87.1924 38.6919,87.6924 39.5,88C 38.782,89.9874 37.782,91.8208 36.5,93.5C 37.6507,94.731 38.8173,94.731 40,93.5C 40.1405,95.2555 39.6405,96.9222 38.5,98.5C 39.9479,100.667 41.1146,103 42,105.5C 42.5354,103.729 43.3687,103.396 44.5,104.5C 43.9067,106.382 43.2401,108.215 42.5,110C 44.3867,110.163 45.8867,109.329 47,107.5C 47.1667,107.833 47.3333,108.167 47.5,108.5C 35.4917,118.34 26.325,130.34 20,144.5C 19.3333,148.5 19.3333,152.5 20,156.5C 20.8763,158.635 22.3763,159.969 24.5,160.5C 24.8333,161.5 25.5,162.167 26.5,162.5C 38.9023,163.968 46.0689,158.302 48,145.5C 48.0428,136.055 49.0428,126.721 51,117.5C 51.7485,119.332 52.7485,120.999 54,122.5C 54.3333,121.833 54.6667,121.167 55,120.5C 56.093,122.349 57.4263,124.016 59,125.5C 60.1926,123.557 61.6926,123.724 63.5,126C 64.5,126.667 65.5,126.667 66.5,126C 65.4464,124.612 65.2797,123.112 66,121.5C 67.1882,122.563 67.6882,123.897 67.5,125.5C 73.8416,125.065 80.1749,124.898 86.5,125C 87.5742,125.739 88.2409,126.739 88.5,128C 87.6705,129.465 87.5038,130.965 88,132.5C 89.1667,130.833 90.3333,129.167 91.5,127.5C 92.2436,128.991 92.9103,130.491 93.5,132C 87.9526,138.926 82.2859,145.759 76.5,152.5C 70.2174,156.656 63.5507,160.156 56.5,163C 52.0507,168.063 48.2174,173.563 45,179.5C 41.922,182.252 38.5887,184.586 35,186.5C 18.0149,173.206 7.68156,155.873 4,134.5C 3.33333,124.167 3.33333,113.833 4,103.5C 12.5505,101.722 19.5505,97.3889 25,90.5C 29.3091,82.7152 34.4758,75.5485 40.5,69C 47.4546,65.0718 54.4546,61.2384 61.5,57.5C 66.6608,51.8517 70.8275,45.5184 74,38.5C 79.4675,33.8473 85.6342,30.3473 92.5,28C 99.1667,20 105.833,12 112.5,4C 128.83,3.50007 145.163,3.3334 161.5,3.5C 161.667,25.1692 161.5,46.8359 161,68.5C 158.56,71.9222 156.56,75.5888 155,79.5C 152.795,82.0402 150.295,84.2068 147.5,86C 133.783,90.7158 124.283,99.8825 119,113.5C 112.824,118.917 106.157,123.583 99,127.5C 96.6081,123.344 97.1081,122.344 100.5,124.5C 101.94,121.772 101.274,119.605 98.5,118C 100.052,114.849 101.885,114.682 104,117.5C 104.078,115.343 104.245,113.343 104.5,111.5C 108.978,115.226 109.645,114.226 106.5,108.5C 112.782,109.618 113.115,107.785 107.5,103C 105.5,102.333 103.5,101.667 101.5,101C 96.4348,100.742 91.4348,101.242 86.5,102.5C 85.7858,98.7539 86.9525,97.7539 90,99.5C 90.8333,99.3333 91.6667,99.1667 92.5,99C 91.3044,98.3457 91.3044,97.8457 92.5,97.5C 94.7676,98.5443 97.1009,98.711 99.5,98C 98.6721,97.0853 97.6721,96.4186 96.5,96C 97.656,94.3851 98.9893,94.3851 100.5,96C 102.5,96.6667 104.5,96.6667 106.5,96C 105.672,95.0853 104.672,94.4186 103.5,94C 106.167,93.6667 108.833,93.3333 111.5,93C 110.5,92.5 109.5,92 108.5,91.5C 107.479,90.9984 107.312,90.3317 108,89.5C 110.707,91.8855 113.54,92.0522 116.5,90C 114.913,89.1376 113.246,88.4709 111.5,88C 115.645,87.9274 118.979,86.2607 121.5,83C 121.272,82.6012 120.938,82.4346 120.5,82.5 Z"/></g>
<g><path style="opacity:1" fill="#000000" d="M 137.5,61.5 C 133.899,62.4633 130.233,63.13 126.5,63.5C 126.146,59.3628 126.646,55.3628 128,51.5C 131.079,47.6756 133.912,43.6756 136.5,39.5C 139.081,35.8636 142.414,34.5303 146.5,35.5C 145.5,36.3333 144.5,37.1667 143.5,38C 145.577,38.1922 147.577,38.6922 149.5,39.5C 148.5,40.3333 147.5,41.1667 146.5,42C 147.833,43.3333 149.167,44.6667 150.5,46C 148.343,46.0781 146.343,46.2448 144.5,46.5C 147.654,53.8221 146.487,54.4888 141,48.5C 137.861,51.3176 137.361,54.3176 139.5,57.5C 138.37,58.6223 137.703,59.9557 137.5,61.5 Z"/></g>
<g><path style="opacity:1" fill="#fefffe" d="M 103.5,38.5 C 105.153,37.2006 106.653,37.5339 108,39.5C 107.54,44.6197 106.874,44.6197 106,39.5C 105.329,38.7476 104.496,38.4142 103.5,38.5 Z"/></g>
<g><path style="opacity:1" fill="#fefffe" d="M 88.5,41.5 C 91.9571,41.6672 92.2904,42.6672 89.5,44.5C 88.6143,43.675 88.281,42.675 88.5,41.5 Z"/></g>
<g><path style="opacity:1" fill="#fefffe" d="M 106.5,47.5 C 107.289,47.7828 107.956,48.2828 108.5,49C 107.184,49.5281 106.517,49.0281 106.5,47.5 Z"/></g>
<g><path style="opacity:1" fill="#fefffe" d="M 83.5,52.5 C 84.7082,51.218 86.0416,51.218 87.5,52.5C 86.3746,54.7936 85.0412,54.7936 83.5,52.5 Z"/></g>
<g><path style="opacity:1" fill="#fefffe" d="M 102.5,52.5 C 102.56,51.9569 102.893,51.6236 103.5,51.5C 104.614,52.723 104.781,54.0563 104,55.5C 103.768,54.2625 103.268,53.2625 102.5,52.5 Z"/></g>
<g><path style="opacity:1" fill="#fefffe" d="M 83.5,52.5 C 85.1241,55.3584 84.4574,56.0251 81.5,54.5C 81.5,53.1667 82.1667,52.5 83.5,52.5 Z"/></g>
<g><path style="opacity:1" fill="#fefffe" d="M 98.5,54.5 C 100.377,55.6591 100.877,57.3258 100,59.5C 99.3923,57.8455 98.8923,56.1789 98.5,54.5 Z"/></g>
<g><path style="opacity:1" fill="#fefffe" d="M 137.5,61.5 C 137.389,62.1174 137.056,62.6174 136.5,63C 130.98,65.0577 125.313,65.7243 119.5,65C 121.382,64.8019 123.048,64.3019 124.5,63.5C 125.167,63.5 125.833,63.5 126.5,63.5C 130.233,63.13 133.899,62.4633 137.5,61.5 Z"/></g>
<g><path style="opacity:1" fill="#006632" d="M 160.5,72.5 C 161.663,93.6627 161.829,114.996 161,136.5C 154.777,165.722 137.943,186.222 110.5,198C 84.0204,206.861 59.3537,203.527 36.5,188C 44.3942,184.439 49.8942,178.605 53,170.5C 54.5,169 56,167.5 57.5,166C 63.5922,162.225 69.9255,158.892 76.5,156C 83.5,147.667 90.5,139.333 97.5,131C 106.459,126.271 114.626,120.438 122,113.5C 124.927,108.881 127.76,104.214 130.5,99.5C 132.833,97.3333 135.167,95.1667 137.5,93C 148.841,90.1531 156.507,83.3198 160.5,72.5 Z"/></g>
<g><path style="opacity:1" fill="#fefffe" d="M 120.5,81.5 C 120.5,81.8333 120.5,82.1667 120.5,82.5C 115.959,83.2308 111.959,82.2308 108.5,79.5C 110.329,78.7122 111.996,79.2122 113.5,81C 115.81,81.4966 118.143,81.6633 120.5,81.5 Z"/></g>
<g><path style="opacity:1" fill="#fefffe" d="M 85.5,88.5 C 83.9153,87.9976 83.4153,86.9976 84,85.5C 85.0386,86.2438 85.5386,87.2438 85.5,88.5 Z"/></g>
<g><path style="opacity:1" fill="#fefffe" d="M 85.5,88.5 C 87.5466,94.0538 86.2133,98.7205 81.5,102.5C 83.9803,98.1936 85.3136,93.5269 85.5,88.5 Z"/></g>
<g><path style="opacity:1" fill="#fefffe" d="M 81.5,102.5 C 81.2172,103.289 80.7172,103.956 80,104.5C 79.4719,103.184 79.9719,102.517 81.5,102.5 Z"/></g>
<g><path style="opacity:1" fill="#fefffe" d="M 79.5,114.5 C 79.5,114.833 79.5,115.167 79.5,115.5C 75.8539,114.538 74.6872,112.205 76,108.5C 76.7126,110.853 77.8793,112.853 79.5,114.5 Z"/></g>
<g><path style="opacity:1" fill="#fe9900" d="M 79.5,115.5 C 79.5,115.167 79.5,114.833 79.5,114.5C 83.6357,112.61 87.969,110.943 92.5,109.5C 97.1824,109.895 98.5157,112.228 96.5,116.5C 90.8955,115.546 85.2289,115.212 79.5,115.5 Z"/></g>
<g><path style="opacity:1" fill="#fefffe" d="M 26.5,162.5 C 25.5,162.167 24.8333,161.5 24.5,160.5C 28.2226,146.62 34.3892,133.954 43,122.5C 38.4101,132.356 33.7434,142.356 29,152.5C 27.8566,155.777 27.0233,159.11 26.5,162.5 Z"/></g>
<g><path style="opacity:1" fill="#fe9900" d="M 94.5,127.5 C 96.9732,127.947 97.1399,128.947 95,130.5C 94.5172,129.552 94.3505,128.552 94.5,127.5 Z"/></g>
<g><path style="opacity:1" fill="#fefffe" d="M -0.5,131.5 C 6.67281,171.67 30.0061,196.67 69.5,206.5C 46.1667,206.5 22.8333,206.5 -0.5,206.5C -0.5,181.5 -0.5,156.5 -0.5,131.5 Z"/></g>
<g><path style="opacity:1" fill="#fefffe" d="M 165.5,133.5 C 165.5,157.833 165.5,182.167 165.5,206.5C 142.167,206.5 118.833,206.5 95.5,206.5C 134.142,196.858 157.475,172.524 165.5,133.5 Z"/></g>
</svg>

<svg xmlns="http://www.w3.org/2000/svg" width="166" height="207" style="shape-rendering:geometricPrecision;text-rendering:geometricPrecision;image-rendering:optimizeQuality;fill-rule:evenodd;clip-rule:evenodd"><path style="opacity:1" d="M-.5-.5h166v134c-8.025 39.024-31.358 63.358-70 73h-26c-39.494-9.83-62.827-34.83-70-75V-.5z"/><path style="opacity:1" fill="#cb0000" d="M3.5 3.5c35.002-.167 70.002 0 105 .5a472.626 472.626 0 0 0-16 20.5 169.22 169.22 0 0 0-19 11 83.224 83.224 0 0 0-8.5 15c-5.108 5.474-11.275 9.307-18.5 11.5C36.45 67.579 29.282 75.745 25 86.5c-5.147 7.82-12.314 12.487-21.5 14v-97z"/><path style="opacity:1" fill="#fe9900" d="M120.5 82.5v-1a345.429 345.429 0 0 1 8-2c-1.006-.896-1.006-1.562 0-2 1.932 1.02 3.932 1.187 6 .5-3.112-.85-3.446-2.017-1-3.5 1.268.928 2.601 1.095 4 .5-2.115-.424-2.948-1.591-2.5-3.5 2.253.446 4.753.612 7.5.5a4.451 4.451 0 0 1-2-1.5c2.477-1.755 5.144-2.588 8-2.5 1.504 4.601 2.838 4.434 4-.5 1.866 1.063 2.366.396 1.5-2a10.756 10.756 0 0 1-2.5-3 7.493 7.493 0 0 1 5-.5c-1.216-1.74-2.882-2.74-5-3a7.253 7.253 0 0 0 2-2.5c-1.574-1.13-3.241-1.297-5-.5a114.578 114.578 0 0 0-11 5.5c.203-1.544.87-2.878 2-4-2.139-3.182-1.639-6.182 1.5-9 5.487 5.989 6.654 5.322 3.5-2a59.608 59.608 0 0 1 6-.5l-4-4 3-2.5a20.211 20.211 0 0 0-6-1.5l3-2.5c-4.086-.97-7.419.364-10 4a119.522 119.522 0 0 1-8.5 12c-1.354 3.863-1.854 7.863-1.5 12h-2c-.978-.311-1.645-.978-2-2 .941.01 1.608-.49 2-1.5a9.26 9.26 0 0 0-2-2.5c1.103-.498 2.103-.83 3-1l-2-3c.467-2.318.467-4.485 0-6.5a18.95 18.95 0 0 0-5-3l2-2a18.95 18.95 0 0 1-5-3 3.647 3.647 0 0 0 1-1.5l-5-2 1-2a14.729 14.729 0 0 0-5-1.5c1.211-.893 1.211-1.726 0-2.5a182.275 182.275 0 0 0-18 5.5 78.121 78.121 0 0 1-14 11c-.837 1.011-1.17 2.178-1 3.5 1.7-.16 3.366.007 5 .5-.667 1.857 0 3.357 2 4.5v5c4.025-.316 8.025-.483 12-.5.928.388 1.595 1.055 2 2-3.736 3.877-8.07 4.544-13 2-2.306-1.986-4.972-3.153-8-3.5a46.378 46.378 0 0 1-12 2.5l-1 1 3 1-8 1c-1.333.667-1.333 1.333 0 2-3.432.116-6.432 1.283-9 3.5a6.807 6.807 0 0 0 3 1.5c-3.986.485-7.32 2.151-10 5l2 1a25.522 25.522 0 0 0-4 4.5c.97 1.462.638 2.795-1 4a4.452 4.452 0 0 0 2 1.5 20.477 20.477 0 0 1-3 5.5c1.15 1.231 2.317 1.231 3.5 0 .14 1.755-.36 3.422-1.5 5a31.434 31.434 0 0 1 3.5 7c.535-1.771 1.369-2.104 2.5-1a66.751 66.751 0 0 1-2 5.5c1.887.163 3.387-.671 4.5-2.5l.5 1c-12.008 9.84-21.175 21.84-27.5 36-.667 4-.667 8 0 12 .876 2.135 2.376 3.469 4.5 4 .333 1 1 1.667 2 2 12.402 1.468 19.569-4.198 21.5-17a137.509 137.509 0 0 1 3-28 18.95 18.95 0 0 0 3 5l1-2a22.763 22.763 0 0 0 4 5c1.193-1.943 2.693-1.776 4.5.5 1 .667 2 .667 3 0-1.054-1.388-1.22-2.888-.5-4.5 1.188 1.063 1.688 2.397 1.5 4a224.599 224.599 0 0 1 19-.5c1.074.739 1.74 1.739 2 3-.83 1.465-.996 2.965-.5 4.5l3.5-5a54.662 54.662 0 0 1 2 4.5 783.725 783.725 0 0 1-17 20.5 112.278 112.278 0 0 1-20 10.5A89.553 89.553 0 0 0 45 179.5a50.895 50.895 0 0 1-10 7c-16.985-13.294-27.318-30.627-31-52a240.499 240.499 0 0 1 0-31c8.55-1.778 15.55-6.111 21-13A111.153 111.153 0 0 1 40.5 69a909.59 909.59 0 0 1 21-11.5 71.873 71.873 0 0 0 12.5-19c5.468-4.653 11.634-8.153 18.5-10.5l20-24c16.33-.5 32.663-.667 49-.5.167 21.67 0 43.336-.5 65a52.173 52.173 0 0 0-6 11 34.706 34.706 0 0 1-7.5 6.5c-13.717 4.716-23.217 13.882-28.5 27.5a111.235 111.235 0 0 1-20 14c-2.392-4.156-1.892-5.156 1.5-3 1.44-2.728.774-4.895-2-6.5 1.552-3.151 3.385-3.318 5.5-.5.078-2.157.245-4.157.5-6 4.478 3.726 5.145 2.726 2-3 6.282 1.118 6.615-.715 1-5.5l-6-2a50.073 50.073 0 0 0-15 1.5c-.714-3.746.453-4.746 3.5-3l2.5-.5c-1.196-.654-1.196-1.154 0-1.5 2.268 1.044 4.6 1.211 7 .5a7.291 7.291 0 0 0-3-2c1.156-1.615 2.49-1.615 4 0 2 .667 4 .667 6 0a7.292 7.292 0 0 0-3-2l8-1-3-1.5c-1.021-.502-1.188-1.168-.5-2 2.707 2.385 5.54 2.552 8.5.5a22.956 22.956 0 0 0-5-2c4.145-.073 7.479-1.74 10-5-.228-.399-.562-.565-1-.5z"/><path style="opacity:1" d="M137.5 61.5a68.719 68.719 0 0 1-11 2c-.354-4.137.146-8.137 1.5-12a119.522 119.522 0 0 0 8.5-12c2.581-3.636 5.914-4.97 10-4l-3 2.5c2.077.192 4.077.692 6 1.5l-3 2.5 4 4a59.608 59.608 0 0 0-6 .5c3.154 7.322 1.987 7.989-3.5 2-3.139 2.818-3.639 5.818-1.5 9-1.13 1.122-1.797 2.456-2 4z"/><path style="opacity:1" fill="#fefffe" d="M103.5 38.5c1.653-1.3 3.153-.966 4.5 1-.46 5.12-1.126 5.12-2 0-.671-.752-1.504-1.086-2.5-1zM88.5 41.5c3.457.167 3.79 1.167 1 3-.886-.825-1.219-1.825-1-3zM106.5 47.5c.789.283 1.456.783 2 1.5-1.316.528-1.983.028-2-1.5zM83.5 52.5c1.208-1.282 2.542-1.282 4 0-1.125 2.294-2.459 2.294-4 0zM102.5 52.5c.06-.543.393-.876 1-1 1.114 1.223 1.281 2.556.5 4-.232-1.237-.732-2.237-1.5-3zM83.5 52.5c1.624 2.858.957 3.525-2 2 0-1.333.667-2 2-2zM98.5 54.5c1.877 1.16 2.377 2.826 1.5 5a42.618 42.618 0 0 1-1.5-5zM137.5 61.5c-.111.617-.444 1.117-1 1.5-5.52 2.058-11.187 2.724-17 2 1.882-.198 3.548-.698 5-1.5h2a68.719 68.719 0 0 0 11-2z"/><path style="opacity:1" fill="#006632" d="M160.5 72.5a684.919 684.919 0 0 1 .5 64c-6.223 29.222-23.057 49.722-50.5 61.5-26.48 8.861-51.146 5.527-74-10 7.894-3.561 13.394-9.395 16.5-17.5l4.5-4.5a152.937 152.937 0 0 1 19-10l21-25a111.65 111.65 0 0 0 24.5-17.5 427.567 427.567 0 0 0 8.5-14l7-6.5c11.341-2.847 19.007-9.68 23-20.5z"/><path style="opacity:1" fill="#fefffe" d="M120.5 81.5v1c-4.541.73-8.541-.27-12-3 1.829-.788 3.496-.288 5 1.5 2.31.497 4.643.663 7 .5zM85.5 88.5c-1.585-.502-2.085-1.502-1.5-3 1.039.744 1.539 1.744 1.5 3zM85.5 88.5c2.047 5.554.713 10.22-4 14 2.48-4.306 3.814-8.973 4-14zM81.5 102.5c-.283.789-.783 1.456-1.5 2-.528-1.316-.028-1.983 1.5-2zM79.5 114.5v1c-3.646-.962-4.813-3.295-3.5-7 .713 2.353 1.88 4.353 3.5 6z"/><path style="opacity:1" fill="#fe9900" d="M79.5 115.5v-1a115.75 115.75 0 0 1 13-5c4.682.395 6.016 2.728 4 7a77.743 77.743 0 0 0-17-1z"/><path style="opacity:1" fill="#fefffe" d="M26.5 162.5c-1-.333-1.667-1-2-2 3.723-13.88 9.89-26.546 18.5-38-4.59 9.856-9.257 19.856-14 30a56.424 56.424 0 0 0-2.5 10z"/><path style="opacity:1" fill="#fe9900" d="M94.5 127.5c2.473.447 2.64 1.447.5 3a4.932 4.932 0 0 1-.5-3z"/><path style="opacity:1" fill="#fefffe" d="M-.5 131.5c7.173 40.17 30.506 65.17 70 75h-70v-75zM165.5 133.5v73h-70c38.642-9.642 61.975-33.976 70-73z"/></svg>
